X:5710
T:Russian Dance
O:england
S:Mick Peat
M:2/4
L:1/4
K:C
a/4g/4f/4|"C"e/2c/2 "G"B/2d/2|"C"c3/2"F"F/2|"C"E/2G/2 "D"A/2c/2|"G"B/2dg/4f/4|\
"C"e/2c/2 "G"B/2d/2|"Cv1"e/2c/2 "G"B/2d/2|"Cv2"E/2G/2 "G"e/2B/2|"C"c3/2:|
B/4c/4|"G"d/2B/2 G/2f/2|\
"C"e/2" F"ga/4g/4f/4|"Cv1"e/2c/2 "D"B/2d/2|"G"g/2GF/2|"C"E/2G/2 A/2E/2|\
"F"z/2ag/4f/4|"Cv2"e/2c/2 "G"G/2B/2|"C"c2:|


